dist/img/stack/stack-21.svg

<svg width="110" height="110" viewBox="0 0 110 110" fill="none" xmlns="http://www.w3.org/2000/svg">
<g clip-path="url(#clip0_7007_181)">
<path d="M82.758 48.596H62.645C62.1623 48.596 61.6993 48.4042 61.358 48.0629C61.0167 47.7216 60.825 47.2587 60.825 46.776V25.813C60.825 24.253 59.572 23.001 58.013 23.001H50.828C49.268 23.001 48.016 24.254 48.016 25.813V46.635C48.016 47.722 47.142 48.597 46.054 48.597L39.46 48.621C38.373 48.621 37.475 47.747 37.498 46.659L37.545 25.814C37.545 24.254 36.292 23.002 34.733 23.002H27.548C25.988 23.002 24.736 24.255 24.736 25.814V84.496C24.736 85.866 25.846 87.001 27.241 87.001H82.757C84.127 87.001 85.262 85.891 85.262 84.496V51.1C85.264 50.7705 85.2005 50.4438 85.0753 50.139C84.9502 49.8342 84.7657 49.5573 84.5327 49.3242C84.2997 49.0912 84.0228 48.9068 83.7179 48.7816C83.4131 48.6564 83.0865 48.593 82.757 48.595L82.758 48.596ZM73.328 70.623C73.3256 71.4873 72.9811 72.3155 72.3699 72.9266C71.7586 73.5376 70.9303 73.8819 70.066 73.884H64.394C63.5298 73.8816 62.7018 73.5373 62.0907 72.9262C61.4797 72.3152 61.1353 71.4871 61.133 70.623V64.951C61.1353 64.0868 61.4797 63.2588 62.0907 62.6477C62.7018 62.0367 63.5298 61.6923 64.394 61.69H70.066C70.9303 61.6921 71.7586 62.0363 72.3699 62.6474C72.9811 63.2584 73.3256 64.0867 73.328 64.951V70.623Z" fill="#B7B7BE"/>
</g>
<defs>
<clipPath id="clip0_7007_181">
<rect width="64" height="64" fill="white" transform="translate(23 23)"/>
</clipPath>
</defs>
</svg>

<svg width="110" height="110" viewBox="0 0 110 110" fill="none" xmlns="http://www.w3.org/2000/svg"><g clip-path="url(#clip0_7007_181)"><path d="M82.758 48.596H62.645a1.82 1.82 0 01-1.82-1.82V25.813a2.804 2.804 0 00-2.812-2.812h-7.185a2.804 2.804 0 00-2.812 2.812v20.822a1.957 1.957 0 01-1.962 1.962l-6.594.024c-1.087 0-1.985-.874-1.962-1.962l.047-20.845a2.804 2.804 0 00-2.812-2.812h-7.185a2.804 2.804 0 00-2.812 2.812v58.682c0 1.37 1.11 2.505 2.505 2.505h55.516c1.37 0 2.505-1.11 2.505-2.505V51.1a2.49 2.49 0 00-2.505-2.505l.001.001zm-9.43 22.027a3.27 3.27 0 01-3.262 3.261h-5.672a3.27 3.27 0 01-3.261-3.261v-5.672a3.27 3.27 0 013.261-3.261h5.672a3.27 3.27 0 013.262 3.261v5.672z" fill="#B7B7BE"/></g><defs><clipPath id="clip0_7007_181"><path fill="#fff" transform="translate(23 23)" d="M0 0h64v64H0z"/></clipPath></defs></svg>
